X: 1733
T: THE CUCKOO'S NEST
M:2/4
L:1/16
B:O'NEILL'S 1733
N:"1st setting"    "collected by F. O'Neill"
Z:Transcribed by A.LEE WORMAN
K:Em
(GA)|BGEG BGEG|BAGF E2(FG)|AFDF AFDF|AGFE D2(EF)|
GFGE g2(fe)|dBGB d2(cB)|AGFE DEFA|G2E2 E2:|
|:(GA)|B2e2 efge|d2B2 B2(dB)|AB^de faef|d2A2 A2 z2|
B2e2 efge|dBGB d2(cB)|AGFE DEFA|G2E2 E2:|


